X:1
T:Exile's Lament -- Jig
R:jig
B:Ryan's Mammoth Collection
Z:Contributed by Ray Davies, ray:davies99.freeserve.co.uk
M:6/8
L:1/8
K:G
ud|vBGG BGG|BcB BAB|GBd gdB|ABA (A2c)|
BGG BGG|BcB BAB|GBd gdB|AGG G z ::
ud|vbgg agf|gfe dBd|bgg afd|(ea)a a2 u(g/a/)|
vbgg agf|gfe dcB|def gdB|AGG G z :|
